projects/vfh1/img/icons/sale.svg

<svg  viewBox="0 0 22 22" xmlns="http://www.w3.org/2000/svg">
<path fill="currentColor" d="M8.42387 1.89701C9.11927 1.30445 9.99657 0.9678 10.9099 0.943057C11.8232 0.918315 12.7174 1.20697 13.4439 1.76101L13.6139 1.89701L13.9899 2.21701C14.2636 2.45064 14.5952 2.6061 14.9499 2.66701L15.1279 2.68901L15.6209 2.72901C16.5341 2.80188 17.3947 3.18605 18.0587 3.81729C18.7227 4.44853 19.1499 5.28859 19.2689 6.19701L19.2899 6.39701L19.3299 6.89101C19.3582 7.24933 19.4825 7.59339 19.6899 7.88701L19.7999 8.02901L20.1219 8.40501C20.7144 9.10041 21.0511 9.97771 21.0758 10.891C21.1006 11.8043 20.8119 12.6985 20.2579 13.425L20.1219 13.595L19.8009 13.971C19.5672 14.2447 19.4118 14.5764 19.3509 14.931L19.3289 15.109L19.2899 15.602C19.217 16.5153 18.8328 17.3759 18.2016 18.0399C17.5703 18.7039 16.7303 19.1311 15.8219 19.25L15.6209 19.271L15.1279 19.311C14.7696 19.3393 14.4255 19.4637 14.1319 19.671L13.9899 19.782L13.6129 20.102C12.9176 20.6947 12.0403 21.0315 11.127 21.0565C10.2138 21.0814 9.31945 20.7929 8.59287 20.239L8.42387 20.103L8.04787 19.782C7.77418 19.5484 7.44252 19.3929 7.08787 19.332L6.90987 19.311L6.41687 19.271C5.5036 19.1981 4.64302 18.814 3.97901 18.1827C3.31501 17.5515 2.88782 16.7114 2.76887 15.803L2.74787 15.603L2.70787 15.109C2.67955 14.7507 2.55519 14.4066 2.34787 14.113L2.23687 13.971L1.91587 13.594C1.32331 12.8986 0.98666 12.0213 0.961917 11.108C0.937175 10.1947 1.22583 9.30048 1.77987 8.57401L1.91587 8.40501L2.23587 8.02901C2.4695 7.75532 2.62496 7.42366 2.68587 7.06901L2.70787 6.89101L2.74787 6.39801C2.82074 5.48474 3.20491 4.62416 3.83615 3.96015C4.46739 3.29615 5.30745 2.86896 6.21587 2.75001L6.41587 2.72901L6.90987 2.68901C7.26819 2.66069 7.61225 2.53633 7.90587 2.32901L8.04787 2.21801L8.42387 1.89801V1.89701ZM13.5189 12C13.121 12 12.7395 12.158 12.4582 12.4393C12.1769 12.7207 12.0189 13.1022 12.0189 13.5C12.0189 13.8978 12.1769 14.2794 12.4582 14.5607C12.7395 14.842 13.121 15 13.5189 15C13.9167 15 14.2982 14.842 14.5795 14.5607C14.8608 14.2794 15.0189 13.8978 15.0189 13.5C15.0189 13.1022 14.8608 12.7207 14.5795 12.4393C14.2982 12.158 13.9167 12 13.5189 12ZM13.3119 7.29301L7.31187 13.293C7.21636 13.3853 7.14018 13.4956 7.08777 13.6176C7.03536 13.7396 7.00777 13.8708 7.00662 14.0036C7.00546 14.1364 7.03077 14.2681 7.08105 14.391C7.13133 14.5139 7.20558 14.6255 7.29947 14.7194C7.39337 14.8133 7.50502 14.8875 7.62791 14.9378C7.75081 14.9881 7.88249 15.0134 8.01527 15.0123C8.14805 15.0111 8.27927 14.9835 8.40127 14.9311C8.52328 14.8787 8.63362 14.8025 8.72587 14.707L14.7259 8.70701C14.908 8.51841 15.0088 8.2658 15.0065 8.00361C15.0043 7.74141 14.8991 7.4906 14.7137 7.30519C14.5283 7.11978 14.2775 7.01461 14.0153 7.01233C13.7531 7.01006 13.5005 7.11085 13.3119 7.29301ZM8.51887 7.00001C8.12104 7.00001 7.73951 7.15804 7.45821 7.43935C7.1769 7.72065 7.01887 8.10218 7.01887 8.50001C7.01887 8.89783 7.1769 9.27936 7.45821 9.56067C7.73951 9.84197 8.12104 10 8.51887 10C8.91669 10 9.29822 9.84197 9.57953 9.56067C9.86083 9.27936 10.0189 8.89783 10.0189 8.50001C10.0189 8.10218 9.86083 7.72065 9.57953 7.43935C9.29822 7.15804 8.91669 7.00001 8.51887 7.00001Z" />
</svg>

<svg viewBox="0 0 22 22" xmlns="http://www.w3.org/2000/svg"><path fill="currentColor" d="M8.424 1.897a4 4 0 015.02-.136l.17.136.376.32a2 2 0 00.96.45l.178.022.493.04a4 4 0 013.648 3.468l.02.2.04.494c.03.358.154.702.36.996l.11.142.323.376a4 4 0 01.136 5.02l-.136.17-.321.376a2 2 0 00-.45.96l-.022.178-.04.493a4 4 0 01-3.467 3.648l-.201.021-.493.04a2 2 0 00-.996.36l-.142.111-.377.32a4 4 0 01-5.02.137l-.17-.136-.375-.321a2 2 0 00-.96-.45l-.178-.021-.493-.04a4 4 0 01-3.648-3.468l-.021-.2-.04-.494a2 2 0 00-.36-.996l-.111-.142-.321-.377a4 4 0 01-.136-5.02l.136-.169.32-.376a2 2 0 00.45-.96l.022-.178.04-.493A4 4 0 016.216 2.75l.2-.021.494-.04a2 2 0 00.996-.36l.142-.111.376-.32v-.001zM13.519 12a1.5 1.5 0 100 3 1.5 1.5 0 000-3zm-.207-4.707l-6 6a1 1 0 101.414 1.414l6-6a1 1 0 00-1.414-1.414zM8.519 7a1.5 1.5 0 100 3 1.5 1.5 0 000-3z"/></svg>
